Numix/16/status/indicator-keyboard-Ka-3.svg

<?xml version="1.0" encoding="UTF-8" standalone="no"?>
<svg
   xmlns:dc="http://purl.org/dc/elements/1.1/"
   xmlns:cc="http://creativecommons.org/ns#"
   xmlns:rdf="http://www.w3.org/1999/02/22-rdf-syntax-ns#"
   xmlns:svg="http://www.w3.org/2000/svg"
   xmlns="http://www.w3.org/2000/svg"
   xmlns:sodipodi="http://sodipodi.sourceforge.net/DTD/sodipodi-0.dtd"
   xmlns:inkscape="http://www.inkscape.org/namespaces/inkscape"
   viewBox="0 0 16 16"
   id="svg2"
   version="1.1"
   inkscape:version="0.91 r13725"
   sodipodi:docname="indicator-keyboard-Ka-3.svg">
  <metadata
     id="metadata14">
    <rdf:RDF>
      <cc:Work
         rdf:about="">
        <dc:format>image/svg+xml</dc:format>
        <dc:type
           rdf:resource="http://purl.org/dc/dcmitype/StillImage" />
      </cc:Work>
    </rdf:RDF>
  </metadata>
  <defs
     id="defs12" />
  <sodipodi:namedview
     pagecolor="#ffffff"
     bordercolor="#666666"
     borderopacity="1"
     objecttolerance="10"
     gridtolerance="10"
     guidetolerance="10"
     inkscape:pageopacity="0"
     inkscape:pageshadow="2"
     inkscape:window-width="640"
     inkscape:window-height="480"
     id="namedview10"
     showgrid="false"
     inkscape:zoom="14.75"
     inkscape:cx="8"
     inkscape:cy="8"
     inkscape:window-x="65"
     inkscape:window-y="24"
     inkscape:window-maximized="0"
     inkscape:current-layer="svg2" />
  <path
     style="fill:#ececec;fill-opacity:1"
     d="M 1.5996094 0 C 0.71320937 2.9605947e-16 0 0.71320937 0 1.5996094 L 0 14.400391 C 2.9605947e-16 15.286791 0.71320937 16 1.5996094 16 L 14.400391 16 C 15.286791 16 16 15.286791 16 14.400391 L 16 1.5996094 C 16 0.71320937 15.286791 0 14.400391 0 L 1.5996094 0 z M 2.0039062 4.859375 L 2.6152344 4.859375 L 2.6152344 7.765625 C 2.8432344 7.561625 3.0950937 7.3284531 3.3710938 7.0644531 C 3.6530937 6.7944531 3.9292188 6.5239062 4.1992188 6.2539062 C 4.4752187 5.9839063 4.7326563 5.7264687 4.9726562 5.4804688 C 5.2126562 5.2344688 5.4048281 5.027375 5.5488281 4.859375 L 6.2871094 4.859375 C 6.1131094 5.045375 5.90225 5.2673906 5.65625 5.5253906 C 5.41025 5.7773906 5.1490469 6.0385937 4.8730469 6.3085938 C 4.5970469 6.5785938 4.322875 6.845375 4.046875 7.109375 C 3.776875 7.367375 3.5324062 7.5949688 3.3164062 7.7929688 C 3.4904062 7.9009687 3.677 8.0352656 3.875 8.1972656 C 4.079 8.3532656 4.2823281 8.5287031 4.4863281 8.7207031 C 4.6963281 8.9067031 4.9016094 9.1044531 5.0996094 9.3144531 C 5.3036094 9.5184531 5.4920156 9.7255469 5.6660156 9.9355469 C 5.8460156 10.145547 6.0045781 10.348875 6.1425781 10.546875 C 6.2865781 10.744875 6.4041406 10.927703 6.4941406 11.095703 L 5.8105469 11.095703 C 5.6065469 10.783703 5.3751875 10.475922 5.1171875 10.169922 C 4.8651875 9.8639217 4.5984062 9.5746875 4.3164062 9.3046875 C 4.0344063 9.0346875 3.7451719 8.7884062 3.4511719 8.5664062 C 3.1631719 8.3444063 2.8852344 8.1597656 2.6152344 8.0097656 L 2.6152344 11.095703 L 2.0039062 11.095703 L 2.0039062 4.859375 z M 8.7773438 6.3359375 C 9.0833437 6.3359375 9.3407813 6.3807031 9.5507812 6.4707031 C 9.7667812 6.5547031 9.9402657 6.6740781 10.072266 6.8300781 C 10.204266 6.9800781 10.301328 7.1591406 10.361328 7.3691406 C 10.421328 7.5791406 10.451172 7.8086875 10.451172 8.0546875 L 10.451172 10.988281 C 10.391172 11.006281 10.303453 11.026781 10.189453 11.050781 C 10.075453 11.068781 9.9429687 11.089281 9.7929688 11.113281 C 9.6429687 11.137281 9.4750625 11.155969 9.2890625 11.167969 C 9.1090625 11.185969 8.9244219 11.195313 8.7324219 11.195312 C 8.4864219 11.195312 8.256875 11.167281 8.046875 11.113281 C 7.842875 11.059281 7.6638125 10.975328 7.5078125 10.861328 C 7.3578125 10.741328 7.2364844 10.592109 7.1464844 10.412109 C 7.0624844 10.226109 7.0214844 10.000328 7.0214844 9.7363281 C 7.0214844 9.4843281 7.0700156 9.2698437 7.1660156 9.0898438 C 7.2620156 8.9098438 7.3963125 8.7624375 7.5703125 8.6484375 C 7.7443125 8.5284375 7.9514063 8.4407187 8.1914062 8.3867188 C 8.4314062 8.3327188 8.6926094 8.3066406 8.9746094 8.3066406 C 9.0586094 8.3066406 9.1463281 8.3122187 9.2363281 8.3242188 C 9.3323281 8.3302187 9.4218594 8.341375 9.5058594 8.359375 C 9.5958594 8.371375 9.6704687 8.3862969 9.7304688 8.4042969 C 9.7964687 8.4162969 9.8412344 8.4294063 9.8652344 8.4414062 L 9.8652344 8.1523438 C 9.8652344 7.9903438 9.8540781 7.8355469 9.8300781 7.6855469 C 9.8060781 7.5295469 9.7519687 7.3914844 9.6679688 7.2714844 C 9.5899687 7.1454844 9.4761719 7.0466094 9.3261719 6.9746094 C 9.1821719 6.8966094 8.99 6.8574219 8.75 6.8574219 C 8.408 6.8574219 8.152375 6.8816875 7.984375 6.9296875 C 7.816375 6.9776875 7.6932344 7.016875 7.6152344 7.046875 L 7.5351562 6.5332031 C 7.6371562 6.4852031 7.7919531 6.4404375 8.0019531 6.3984375 C 8.2179531 6.3564375 8.4773438 6.3359375 8.7773438 6.3359375 z M 12.628906 8.7539062 C 12.831706 8.7539062 13.004138 8.7793781 13.148438 8.8300781 C 13.296637 8.8807781 13.420078 8.953275 13.517578 9.046875 C 13.615078 9.136575 13.687575 9.2463 13.734375 9.375 C 13.781175 9.4997999 13.804688 9.6350031 13.804688 9.7832031 C 13.804688 10.021103 13.740028 10.217041 13.611328 10.369141 C 13.486528 10.517341 13.323899 10.625106 13.125 10.691406 C 13.2342 10.718706 13.340007 10.759859 13.441406 10.818359 C 13.546706 10.872959 13.640756 10.945456 13.722656 11.035156 C 13.804556 11.120956 13.871175 11.226762 13.921875 11.351562 C 13.972575 11.476363 13.996094 11.623316 13.996094 11.791016 C 13.996094 11.962616 13.966697 12.119372 13.904297 12.263672 C 13.845797 12.407972 13.755666 12.535331 13.634766 12.644531 C 13.517766 12.749831 13.366893 12.834084 13.183594 12.896484 C 13.000294 12.954984 12.786716 12.984375 12.541016 12.984375 C 12.412316 12.984375 12.292794 12.974578 12.183594 12.955078 C 12.078294 12.939478 11.984244 12.919884 11.902344 12.896484 C 11.820444 12.873084 11.749906 12.849572 11.691406 12.826172 C 11.636806 12.802772 11.595659 12.783178 11.568359 12.767578 L 11.667969 12.427734 C 11.691369 12.443334 11.730556 12.462928 11.785156 12.486328 C 11.839756 12.509728 11.904416 12.533241 11.978516 12.556641 C 12.056516 12.576141 12.142728 12.593775 12.236328 12.609375 C 12.333828 12.624975 12.439634 12.632813 12.552734 12.632812 C 12.923234 12.632812 13.187756 12.556397 13.347656 12.404297 C 13.507556 12.248297 13.587891 12.040597 13.587891 11.779297 C 13.587891 11.607697 13.554581 11.464663 13.488281 11.351562 C 13.425881 11.238463 13.337709 11.148331 13.224609 11.082031 C 13.115409 11.011831 12.986091 10.962847 12.837891 10.935547 C 12.693591 10.904347 12.540753 10.888672 12.376953 10.888672 L 12.318359 10.888672 L 12.318359 10.574219 L 12.453125 10.574219 C 12.558425 10.574219 12.664237 10.564422 12.773438 10.544922 C 12.886537 10.521522 12.988425 10.480375 13.078125 10.421875 C 13.171725 10.363375 13.248141 10.285 13.306641 10.1875 C 13.369041 10.09 13.400391 9.9646001 13.400391 9.8125 C 13.400391 9.6838 13.378838 9.5760281 13.335938 9.4863281 C 13.293037 9.3927281 13.234256 9.3182719 13.160156 9.2636719 C 13.089956 9.2090719 13.005703 9.1698844 12.908203 9.1464844 C 12.814603 9.1191844 12.716628 9.1054687 12.611328 9.1054688 C 12.400728 9.1054688 12.236141 9.1348594 12.119141 9.1933594 C 12.002141 9.2518594 11.906131 9.3067219 11.832031 9.3574219 L 11.667969 9.0585938 C 11.706969 9.0312937 11.755953 8.9999437 11.814453 8.9648438 C 11.876853 8.9297437 11.94935 8.8964344 12.03125 8.8652344 C 12.11315 8.8340344 12.203281 8.8085625 12.300781 8.7890625 C 12.402181 8.7656625 12.511906 8.7539062 12.628906 8.7539062 z M 8.9570312 8.8105469 C 8.8130313 8.8105469 8.6618594 8.8217031 8.5058594 8.8457031 C 8.3498594 8.8637031 8.2062187 8.9084688 8.0742188 8.9804688 C 7.9422188 9.0464687 7.834 9.1397656 7.75 9.2597656 C 7.666 9.3797656 7.625 9.5383281 7.625 9.7363281 C 7.625 9.9103281 7.6510781 10.057734 7.7050781 10.177734 C 7.7650781 10.297734 7.8472188 10.394797 7.9492188 10.466797 C 8.0572188 10.538797 8.1821719 10.592906 8.3261719 10.628906 C 8.4761719 10.658906 8.6440781 10.673828 8.8300781 10.673828 C 9.0580781 10.673828 9.2558281 10.666297 9.4238281 10.654297 C 9.5978281 10.636297 9.7452344 10.615797 9.8652344 10.591797 L 9.8652344 8.953125 C 9.7992344 8.923125 9.6947813 8.8932812 9.5507812 8.8632812 C 9.4067813 8.8272813 9.2090312 8.8105469 8.9570312 8.8105469 z "
     id="path4" />
</svg>

<svg xmlns="http://www.w3.org/2000/svg" viewBox="0 0 16 16">
 <path d="m 1.6 0 c -0.886 0 -1.6 0.713 -1.6 1.6 l 0 12.801 c 0 0.886 0.713 1.6 1.6 1.6 l 12.801 0 c 0.886 0 1.6 -0.713 1.6 -1.6 l 0 -12.801 c 0 -0.886 -0.713 -1.6 -1.6 -1.6 l -12.801 0 z m 0.404 4.859 l 0.611 0 l 0 2.906 c 0.228 -0.204 0.48 -0.437 0.756 -0.701 c 0.282 -0.27 0.558 -0.541 0.828 -0.811 c 0.276 -0.27 0.533 -0.527 0.773 -0.773 c 0.24 -0.246 0.432 -0.453 0.576 -0.621 l 0.738 0 c -0.174 0.186 -0.385 0.408 -0.631 0.666 c -0.246 0.252 -0.507 0.513 -0.783 0.783 c -0.276 0.27 -0.55 0.537 -0.826 0.801 c -0.27 0.258 -0.514 0.486 -0.73 0.684 c 0.174 0.108 0.361 0.242 0.559 0.404 c 0.204 0.156 0.407 0.331 0.611 0.523 c 0.21 0.186 0.415 0.384 0.613 0.594 c 0.204 0.204 0.392 0.411 0.566 0.621 c 0.18 0.21 0.339 0.413 0.477 0.611 c 0.144 0.198 0.262 0.381 0.352 0.549 l -0.684 0 c -0.204 -0.312 -0.435 -0.62 -0.693 -0.926 c -0.252 -0.306 -0.519 -0.595 -0.801 -0.865 c -0.282 -0.27 -0.571 -0.516 -0.865 -0.738 c -0.288 -0.222 -0.566 -0.407 -0.836 -0.557 l 0 3.086 l -0.611 0 l 0 -6.236 z m 6.773 1.477 c 0.306 0 0.563 0.045 0.773 0.135 c 0.216 0.084 0.389 0.203 0.521 0.359 c 0.132 0.15 0.229 0.329 0.289 0.539 c 0.06 0.21 0.09 0.44 0.09 0.686 l 0 2.934 c -0.06 0.018 -0.148 0.038 -0.262 0.063 c -0.114 0.018 -0.246 0.038 -0.396 0.063 c -0.15 0.024 -0.318 0.043 -0.504 0.055 c -0.18 0.018 -0.365 0.027 -0.557 0.027 c -0.246 0 -0.476 -0.028 -0.686 -0.082 c -0.204 -0.054 -0.383 -0.138 -0.539 -0.252 c -0.15 -0.12 -0.271 -0.269 -0.361 -0.449 c -0.084 -0.186 -0.125 -0.412 -0.125 -0.676 c 0 -0.252 0.049 -0.466 0.145 -0.646 c 0.096 -0.18 0.23 -0.327 0.404 -0.441 c 0.174 -0.12 0.381 -0.208 0.621 -0.262 c 0.24 -0.054 0.501 -0.08 0.783 -0.08 c 0.084 0 0.172 0.006 0.262 0.018 c 0.096 0.006 0.186 0.017 0.27 0.035 c 0.09 0.012 0.165 0.027 0.225 0.045 c 0.066 0.012 0.111 0.025 0.135 0.037 l 0 -0.289 c 0 -0.162 -0.011 -0.317 -0.035 -0.467 c -0.024 -0.156 -0.078 -0.294 -0.162 -0.414 c -0.078 -0.126 -0.192 -0.225 -0.342 -0.297 c -0.144 -0.078 -0.336 -0.117 -0.576 -0.117 c -0.342 0 -0.598 0.024 -0.766 0.072 c -0.168 0.048 -0.291 0.087 -0.369 0.117 l -0.08 -0.514 c 0.102 -0.048 0.257 -0.093 0.467 -0.135 c 0.216 -0.042 0.475 -0.063 0.775 -0.063 z m 3.852 2.418 c 0.203 0 0.375 0.025 0.52 0.076 c 0.148 0.051 0.272 0.123 0.369 0.217 c 0.098 0.09 0.17 0.199 0.217 0.328 c 0.047 0.125 0.07 0.26 0.07 0.408 c 0 0.238 -0.065 0.434 -0.193 0.586 c -0.125 0.148 -0.287 0.256 -0.486 0.322 c 0.109 0.027 0.215 0.068 0.316 0.127 c 0.105 0.055 0.199 0.127 0.281 0.217 c 0.082 0.086 0.149 0.192 0.199 0.316 c 0.051 0.125 0.074 0.272 0.074 0.439 c 0 0.172 -0.029 0.328 -0.092 0.473 c -0.059 0.144 -0.149 0.272 -0.27 0.381 c -0.117 0.105 -0.268 0.19 -0.451 0.252 c -0.183 0.059 -0.397 0.088 -0.643 0.088 c -0.129 0 -0.248 -0.01 -0.357 -0.029 c -0.105 -0.016 -0.199 -0.035 -0.281 -0.059 c -0.082 -0.023 -0.152 -0.047 -0.211 -0.07 c -0.055 -0.023 -0.096 -0.043 -0.123 -0.059 l 0.1 -0.34 c 0.023 0.016 0.063 0.035 0.117 0.059 c 0.055 0.023 0.119 0.047 0.193 0.07 c 0.078 0.019 0.164 0.037 0.258 0.053 c 0.098 0.016 0.203 0.023 0.316 0.023 c 0.371 0 0.635 -0.076 0.795 -0.229 c 0.16 -0.156 0.24 -0.364 0.24 -0.625 c 0 -0.172 -0.033 -0.315 -0.1 -0.428 c -0.062 -0.113 -0.151 -0.203 -0.264 -0.27 c -0.109 -0.07 -0.239 -0.119 -0.387 -0.146 c -0.144 -0.031 -0.297 -0.047 -0.461 -0.047 l -0.059 0 l 0 -0.314 l 0.135 0 c 0.105 0 0.211 -0.01 0.32 -0.029 c 0.113 -0.023 0.215 -0.065 0.305 -0.123 c 0.094 -0.059 0.17 -0.137 0.229 -0.234 c 0.062 -0.098 0.094 -0.223 0.094 -0.375 c 0 -0.129 -0.022 -0.236 -0.064 -0.326 c -0.043 -0.094 -0.102 -0.168 -0.176 -0.223 c -0.07 -0.055 -0.154 -0.094 -0.252 -0.117 c -0.094 -0.027 -0.192 -0.041 -0.297 -0.041 c -0.211 0 -0.375 0.029 -0.492 0.088 c -0.117 0.059 -0.213 0.113 -0.287 0.164 l -0.164 -0.299 c 0.039 -0.027 0.088 -0.059 0.146 -0.094 c 0.062 -0.035 0.135 -0.068 0.217 -0.1 c 0.082 -0.031 0.172 -0.057 0.27 -0.076 c 0.101 -0.023 0.211 -0.035 0.328 -0.035 z m -3.672 0.057 c -0.144 0 -0.295 0.011 -0.451 0.035 c -0.156 0.018 -0.3 0.063 -0.432 0.135 c -0.132 0.066 -0.24 0.159 -0.324 0.279 c -0.084 0.12 -0.125 0.279 -0.125 0.477 c 0 0.174 0.026 0.321 0.08 0.441 c 0.06 0.12 0.142 0.217 0.244 0.289 c 0.108 0.072 0.233 0.126 0.377 0.162 c 0.15 0.03 0.318 0.045 0.504 0.045 c 0.228 0 0.426 -0.008 0.594 -0.02 c 0.174 -0.018 0.321 -0.038 0.441 -0.063 l 0 -1.639 c -0.066 -0.03 -0.17 -0.06 -0.314 -0.09 c -0.144 -0.036 -0.342 -0.053 -0.594 -0.053 z" style="fill:#ececec;fill-opacity:1"/>
</svg>
